X: 4056
T: Blencathra
R: jig
M: 6/8
K: Aminor
|:DEA AGA|[E2c2] z4|[B2D2] B BAG|BAG BAG|
DEA AGA|[E2c2] z4|[B2D2] B BAG|[E2A2] z4:|
K:Emin
f2 f fed|[B2e2] z4|f2 f fef|gfe gfe|
f2 f fed|[B2e2] z4|fgf agf|[E2B2e2] z4:|

